once $ s "glitch2:5"

d1
  $ jux (rev)
  $ s "glitch2:5*4"
  # n "5 5 3 0"

d2
  $ slow 1.25
  $ n "2 1 3 0" # s "808"
  # room "0 0 0 <0.95 0 0 0>"
  # size 0.95
  # lpf (range 1000 2000 rand)
  # speed "-0.2"

d3
  $ jux (rev)
  $ sometimesBy 0.4 (# lpf 200)
  $ every 3 (fast "2")
  $ sometimes (rev)
  $ stack [
    gain "[1 0 1 0]" # s "beep" # gain 0.8 # speed (range 1 4 $ rand),
    gain "[0 1 1 0]" # s "sine" # n (irand 10)
  ]
