
setcps (120/60/4)

d1
  $ s "supergong"
  # decay "[1 0.2]/4"
  # voice "[0.5 0.8]/8"

d2
  $ jux (rev)
  $ within (0.8, 1) (# distort 0.2)
  $ "superhammond(4, 6)"
  # sustain 0.08
  # note (scale "major" (irand 8))
  # vowel "<a,o>"

d3 $ s "ab*4" # n 4 # shape 0.4 # gain 1.2

d1
$s "supersaw(11, 16)"
#sustain "{0.08 0.1}%4"
#n "{0 4 5 7 9 12}%11"
|-|n 20
|+|n "[0, 7, 12]"
# vowel "a"
