
-- タイプシグネチャを参照することができる
-- [out] speed :: Pattern Double -> ControlPattern

:t speed

-- サイクルの中身をみることができる(ただし、はじめの$やd1などを付けないこと)

{-
[out]

(0>⅛)|s: "bd"
(⅛>¼)|s: "bd"
(¼>⅜)|s: "bd"
(⅜>½)|s: "bd"
(½>⅝)|s: "bd"
(⅝>¾)|s: "bd"
(¾>⅞)|s: "bd"
(⅞>1)|s: "bd"
-}

fast 2 $ s "bd*4"

-- BPMを設定する
-- 60は1分を、4はビートを表している
setcps (130/60/4)


-- サイクルをリセットする

resetCycles

-- サイクルを描画する

draw "hh hh*2"

drawLine "hh hh*4"

