setcps (120/60/4)

d1
$ every 4 (within (10/16,1) (|*| speed "0.8*16"))
$ jux (0.125 ~>)
$ slice 8 (run 16) $ s "piano-loop" # cut 2 # gain 1.4
# speed "-1"

d4 $ n "0*4" # s "bd"
# room "0 0 0 0" # gain 1.2

d1 silence

d3
  $ whenmod 8 4 ((# n 1).(fast "<1 2 4 >"))
  $ n "1 6 12 ~"
  # s "house"
  # pan sine

d3 silence

hush
