
let dj = (# hpf (slow 4 $ rangex 200 3000 saw)). (# hpq 0.4)

d1 
  $ whenmod 16 12 dj
  $ within (0, 0.2) (# speed 2) 
  $ stack [
    sound "house*8", 
    within (0, 0.2) (# speed 4) $ sound "drum*16"
  ]
  # n (choose [0, 2, 5, 8])
